X:1
T:He Included Me
T:Hampton Haygood Sewell
T:He Included Me
T:Public Domain
T:Public Domain
C:Hampton Haygood Sewell
Z:Public Domain
%%score 1 ( 2 3 )
L:1/8
M:6/8
K:Bb
V:1 treble 
V:2 bass 
V:3 bass 
V:1
 [DF][B,D][CE] [DF][FB][Fc] | [Fd]2 [=E^c] [Fd]3 | [Fd][Ec][DB] [EA][DB][Ec] | [DB]2 [^CG] [DF]3 | %4
w: 1.~I am so hap- py in|Christ to- day,|That I go sing- ing a-|long my way;|
w: 2.~Glad- ly I read, “Who- so-|ev- er may|Come to the fount- ain of|life to- day”;|
w: 3.~Ev- er God’s Spir- it is|say- ing, “Come!”|Hear the Bride say- ing, “No|long- er roam”;|
w: 4.~“Freel- y come drink,” words the|soul to thrill!|O with what joy they my|heart do fill!|
 [DF][B,D][CE] [DF][FB][Fc] | [Fd]2 [=E^c] [Fd]3 | [=Ed][Ec][EB] [EG][EA][EB] | [Ec]6 || %8
w: Yes, I’m so hap- py to|know and say,|“Je- sus in- clud- ed me,|too.”|
w: But when I read it I|al- ways say,|“Je- sus in- clud- ed me,|too.”|
w: But I am sure while they’re|call- ing home,|Je- sus in- clud- ed me,|too.|
w: For when He said, “Who- so-|ev- er will,”|Je- sus in- clud- ed me,|too.|
"^Refrain" [Fd]3 [Ge]2 [Fd] | [=Ed] [Ec]2 [EG]3 | [Ec]3 [Fd]2 [Ec] | [Ec] [DB]2 [DF]3 | %12
w: ||||
w: ||||
w: ||||
w: ||||
 [GB]2 [GB] [FA]2 [EG] | [DF]2 [DG] [DA] [FB]2 | [=Ec]2 [EB] [EG] [Ed]2 | [Fc]6 | %16
w: ||||
w: ||||
w: ||||
w: ||||
 [Fd]3 [Ge]2 [Fd] | [=Ed] [Ec]2 [EG]3 | [Ec]3 [Fd]2 [Ec] | [Ec] [DB]2 [DF]2 [FB] | %20
w: ||||
w: ||||
w: ||||
w: ||||
 [GB]2 [GB] [FA]2 [EG] | [DF]2 [DB] [Fd] [Ge]2 | [Fd]2 [=EB] [Fd] [_Ec]2 | [DB]6 |] %24
w: ||||
w: ||||
w: ||||
w: ||||
V:2
 [B,,B,][B,,F,][B,,F,] [B,,B,][D,B,][F,A,] | B,2 B, B,3 | B,[F,A,][F,B,] [F,C][F,B,][F,A,] | %3
w: ~ ~ ~ ~ ~ ~|~ ~ ~|~ ~ ~ ~ ~ ~|
 (B,F,)[B,,=E,] (F, B,2) | [B,,B,][B,,F,][B,,F,] [B,,B,][D,B,][F,A,] | B,2 B, [B,,B,]3 | %6
w: ~ * ~ ~ *|~ ~ ~ ~ ~ ~|~ ~ ~|
 [C,G,][C,G,][C,C] [C,C][C,C][C,B,] | [F,A,]6 || [B,,B,]3 [B,,B,]2 [B,,B,] | %9
w: sus in- clud- ed me, yes,|He|in- clud- ed|
 [C,G,] [C,G,]2 (C,2 G,) | [F,A,]3 [F,B,]2 [F,A,] | [B,,B,] [B,,F,]2 [B,,B,]3 | %12
w: me, When the *|said, “Who- so-|ev- er,” He|
 [E,B,]2 [E,B,] [E,B,]2 [E,B,] | [B,,B,]2 [B,,B,] [B,,B,] [D,B,]2 | [C,G,]2 [C,G,] [C,C] [C,B,]2 | %15
w: in- clud- ed me;|Je- sus in- clud-|ed me, yes, He|
 [F,A,]6 | [B,,B,]3 [B,,B,]2 [B,,B,] | [C,G,] [C,G,]2 (C,2 G,) | [F,A,]3 [F,B,]2 [F,A,] | %19
w: in-|clud- ed me,|When the Lord *|“Who- so- ev-|
 [B,,B,] [B,,F,]2 (B,,2 D,) | [E,B,]2 [E,B,] [E,B,]2 [E,B,] | [B,,B,]2 [B,,F,] [B,,B,] [E,B,]2 | %22
w: er,” He in- *|ed me. * *||
 [F,B,]2 [G,C] [F,B,] [F,A,]2 | [B,,B,]6 |] %24
w: ||
V:3
 x6 | B,2 B, B,3 | B, x5 | B,,2 B,,3 x | x6 | B,2 B, x3 | x6 | x6 || x6 | x3 C3 | x6 | x6 | x6 | %13
w: |~ ~ ~|~|~ ~||~ Je-||||Lord||||
 x6 | x6 | x6 | x6 | x3 C3 | x6 | x3 B,3 | x6 | x6 | x6 | x6 |] %24
w: ||||said,||clud-|||||

